remix/Finance/refund-2-line.svg

<svg viewBox="0 0 24 24" fill="currentColor" xmlns="http://www.w3.org/2000/svg"><path d="M5.67591 4.25667C9.60392 1.03828 15.4094 1.26236 19.076 4.92893C22.9812 8.83418 22.9812 15.1658 19.076 19.0711C15.1707 22.9763 8.83906 22.9763 4.93382 19.0711C2.40932 16.5466 1.51676 13.0081 2.25611 9.76666L2.33275 9.45394L4.26718 9.96315C3.56967 12.623 4.26329 15.5721 6.34803 17.6569C9.47222 20.781 14.5375 20.781 17.6617 17.6569C20.7859 14.5327 20.7859 9.46734 17.6617 6.34315C14.8441 3.5255 10.4475 3.24903 7.32006 5.51375L7.09886 5.67983L8.1158 6.6967L3.5196 7.75736L4.58026 3.16117L5.67591 4.25667ZM13.0049 6V8H15.5049V10H10.0049C9.72874 10 9.50488 10.2239 9.50488 10.5C9.50488 10.7455 9.68176 10.9496 9.91501 10.9919L10.0049 11H14.0049C15.3856 11 16.5049 12.1193 16.5049 13.5C16.5049 14.8807 15.3856 16 14.0049 16H13.0049V18H11.0049V16H8.50488V14H14.0049C14.281 14 14.5049 13.7761 14.5049 13.5C14.5049 13.2545 14.328 13.0504 14.0948 13.0081L14.0049 13H10.0049C8.62417 13 7.50488 11.8807 7.50488 10.5C7.50488 9.11929 8.62417 8 10.0049 8H11.0049V6H13.0049Z"/></svg>

<svg viewBox="0 0 24 24" xmlns="http://www.w3.org/2000/svg"><path fill="none" d="M0 0h24v24H0Z"/><path d="M5.67 4.25c3.92-3.219 9.733-3 13.4.67 3.9 3.9 3.9 10.23 0 14.14 -3.91 3.9-10.24 3.9-14.15 0v0c-2.44-2.44-3.45-5.95-2.68-9.31l.07-.32 1.93.51v0c-1.13 4.27 1.42 8.64 5.7 9.77 4.27 1.12 8.64-1.43 9.77-5.71 1.12-4.28-1.43-8.65-5.71-9.78 -2.32-.61-4.78-.15-6.72 1.25l-.23.16 1.01 1.01L3.46 7.7 4.52 3.1 5.62 4.2Zm7.32 1.74v2h2.5v2h-5.5v0c-.28-.01-.51.22-.51.49 -.01.24.17.44.41.49l.09 0h4v0c1.38 0 2.5 1.11 2.5 2.5 0 1.38-1.12 2.5-2.5 2.5h-1v2h-2v-2h-2.5v-2h5.5v0c.27 0 .5-.23.5-.5 0-.25-.18-.45-.42-.5l-.09-.01h-4v0c-1.39 0-2.5-1.12-2.5-2.5 0-1.39 1.11-2.5 2.5-2.5h1v-2h2Z"/></svg>
